frontend/public/svg/interface/note.svg

<svg width="155" height="155" viewBox="0 0 155 155" fill="none" xmlns="http://www.w3.org/2000/svg">
<g clip-path="url(#clip0)">
<path d="M1.77 75.9403C1.77 61.4508 1.80893 46.959 1.74525 32.4724C1.7277 28.3545 1.36971 24.2391 1.243 20.1205C0.910304 9.24447 8.36408 1.26206 19.9368 1.03412C44.0589 0.558703 68.1786 -0.478187 92.3151 0.345657C94.8694 0.432926 97.4341 0.253818 99.9865 0.366486C101.533 0.427783 103.067 0.680246 104.553 1.11808C105.203 1.30689 105.776 1.70079 106.187 2.2414C106.597 2.78201 106.822 3.44053 106.83 4.11966C106.926 5.59347 106.397 6.90065 105.076 7.45162C103.445 8.1232 101.737 8.58846 99.9923 8.83685C98.4413 8.98416 96.8811 8.98716 95.3301 8.8459C75.2081 7.98103 55.0768 8.08262 34.9489 8.44668C29.5141 8.57276 24.0906 9.005 18.7042 9.74138C15.3331 10.1849 12.2485 11.7089 10.9424 15.2693C10.3554 16.7013 10.0373 18.2295 10.004 19.7772C10.1574 25.6738 10.5162 31.5652 10.8053 37.4584C10.9035 39.4617 11.097 41.463 11.1191 43.4663C11.3232 61.7445 11.5974 80.0231 11.6474 98.3027C11.6786 109.67 11.3003 121.037 11.2367 132.405C11.3128 135.406 11.5515 138.401 11.9515 141.377C12.1594 143.388 13.2745 144.618 15.3713 144.829C16.0341 144.894 16.6897 145.122 17.3486 145.122C23.5671 145.127 29.7875 145.199 36.0034 145.057C43.8951 144.876 51.7816 144.32 59.6732 144.265C78.9138 144.135 98.156 144.151 117.397 144.205C122.843 144.221 128.287 144.583 133.733 144.76C135.745 144.894 137.744 144.344 139.404 143.197C141.065 142.05 142.29 140.375 142.882 138.443C143.121 137.714 143.24 136.95 143.234 136.183C143.16 130.285 142.665 124.367 143.003 118.496C144.176 98.1158 144.168 77.7228 144.161 57.3257C144.161 55.2085 144.191 53.0886 144.314 50.9759C144.369 49.7514 144.563 48.5372 144.894 47.357C145.067 46.7019 145.439 46.1173 145.96 45.6846C146.48 45.2518 147.122 44.9925 147.796 44.9427C149.361 44.7603 150.803 45.1616 151.472 46.636C152.143 48.0317 152.567 49.5337 152.727 51.075C153.218 57.8514 153.559 64.6395 153.936 71.4245C155.117 92.7207 153.911 113.988 153.286 135.263C153.175 137.486 152.762 139.684 152.059 141.796C151.42 144 150.273 146.024 148.712 147.703C147.151 149.383 145.218 150.672 143.069 151.467C138.918 153.083 134.498 153.893 130.045 153.853C115.701 153.816 101.356 153.862 87.0121 153.844C81.563 153.838 76.1119 153.619 70.666 153.714C57.772 153.944 44.8809 154.334 31.9877 154.6C26.7634 154.707 21.53 154.828 16.3116 154.643C8.01703 154.349 2.75501 148.868 2.64585 140.454C2.36579 118.95 2.18056 97.4456 1.95703 75.9416L1.77 75.9403Z" fill="black"/>
<path d="M61.8573 92.567C61.969 91.5947 62.1693 90.6341 62.4557 89.6982C64.1094 85.099 65.7699 80.4985 67.6218 75.9775C68.3385 74.3441 69.3008 72.8299 70.475 71.4883C89.4014 48.9894 108.635 26.7664 129.525 6.04649C130.377 5.16797 131.286 4.34584 132.245 3.58533C134.961 1.51498 137.789 1.44934 140.509 3.53207C142.165 4.84379 143.736 6.26011 145.213 7.77241C147.819 10.3573 150.337 13.0293 152.912 15.6441C155.207 17.9737 154.66 20.907 152.892 22.8478C151.469 24.4108 149.942 25.8761 148.437 27.361C130.926 44.6435 113.242 61.756 95.9987 79.3035C91.0902 84.4107 85.4565 88.7637 79.2803 92.2219C76.264 93.8806 73.1619 95.3831 70.0799 96.9194C69.2865 97.3239 68.4529 97.6436 67.5938 97.8748C63.867 98.8367 61.7364 97.1246 61.8573 92.567ZM85.7476 79.3146L131.152 32.2134L124.271 21.8865C108.69 38.6968 93.3573 55.2375 77.7968 72.0263C80.5864 74.5851 83.2498 77.0273 85.745 79.3146H85.7476ZM129.899 16.6959L138.171 25.0582L144.561 19.3706C141.804 16.1319 139.264 13.1479 136.617 10.0381L129.899 16.6959ZM73.7909 78.6704C72.9546 80.6164 72.3314 82.0668 71.7174 83.4969L74.2353 86.3143L78.0769 84.0707L73.7909 78.6704Z" fill="black"/>
</g>
<defs>
<clipPath id="clip0">
<rect width="154" height="155" fill="white" transform="translate(0.777344)"/>
</clipPath>
</defs>
</svg>

<svg xmlns="http://www.w3.org/2000/svg" width="155" height="155" fill="none" viewBox="0 0 155 155"><g fill="#000" clip-path="url(#a)"><path d="M1.77 75.94c0-14.49.039-28.981-.025-43.468-.017-4.117-.375-8.233-.502-12.352C.91 9.245 8.364 1.262 19.937 1.035 44.059.56 68.179-.478 92.315.346c2.554.087 5.12-.092 7.672.02 1.546.062 3.08.314 4.566.752a3.16 3.16 0 0 1 2.277 3.002c.096 1.473-.433 2.78-1.754 3.332a21.2 21.2 0 0 1-5.084 1.385c-1.55.147-3.11.15-4.662.009-20.122-.865-40.253-.763-60.381-.4-5.435.127-10.858.559-16.245 1.295-3.37.444-6.456 1.968-7.762 5.528a12.6 12.6 0 0 0-.938 4.508c.153 5.897.512 11.788.801 17.681.098 2.004.292 4.005.314 6.008.204 18.279.478 36.557.528 54.837.032 11.367-.347 22.734-.41 34.102a83 83 0 0 0 .714 8.972c.208 2.011 1.323 3.241 3.42 3.452.663.065 1.319.293 1.978.293 6.218.005 12.439.077 18.654-.065 7.892-.181 15.779-.737 23.67-.792 19.24-.13 38.483-.114 57.724-.06 5.446.016 10.89.378 16.336.555a8.93 8.93 0 0 0 5.671-1.563 8.97 8.97 0 0 0 3.478-4.754 7.1 7.1 0 0 0 .352-2.26c-.074-5.898-.569-11.816-.231-17.687 1.173-20.38 1.165-40.773 1.158-61.17 0-2.117.03-4.237.153-6.35a16 16 0 0 1 .58-3.619 3.25 3.25 0 0 1 2.902-2.414c1.565-.183 3.007.219 3.676 1.693a13.5 13.5 0 0 1 1.255 4.439c.491 6.776.832 13.564 1.209 20.35 1.181 21.296-.025 42.563-.65 63.838a24.6 24.6 0 0 1-1.227 6.533 14.7 14.7 0 0 1-3.347 5.907 14.6 14.6 0 0 1-5.643 3.764 35 35 0 0 1-13.024 2.386c-14.344-.037-28.689.009-43.033-.009-5.449-.006-10.9-.225-16.346-.13-12.894.23-25.785.62-38.678.886-5.225.107-10.458.228-15.676.043-8.295-.294-13.557-5.775-13.666-14.189-.28-21.504-.465-43.008-.689-64.512z"/><path d="M61.857 92.567a16 16 0 0 1 .599-2.869c1.653-4.599 3.314-9.2 5.166-13.72a17.5 17.5 0 0 1 2.853-4.49c18.926-22.499 38.16-44.722 59.05-65.442q1.28-1.319 2.72-2.46c2.716-2.071 5.544-2.137 8.264-.054a50 50 0 0 1 4.704 4.24c2.606 2.585 5.124 5.257 7.699 7.872 2.295 2.33 1.748 5.263-.02 7.204-1.423 1.563-2.95 3.028-4.455 4.513-17.511 17.283-35.195 34.395-52.438 51.942a72 72 0 0 1-16.719 12.92c-3.016 1.659-6.118 3.161-9.2 4.697-.793.405-1.627.725-2.486.956-3.727.962-5.858-.75-5.737-5.308m23.89-13.252 45.405-47.102-6.881-10.326c-15.581 16.81-30.914 33.35-46.474 50.14l7.948 7.288zm44.152-62.62 8.272 8.363 6.39-5.687-7.944-9.333zM73.791 78.67l-2.074 4.827 2.518 2.817 3.842-2.243z"/></g><defs><clipPath id="a"><path fill="#fff" d="M.777 0h154v155h-154z"/></clipPath></defs></svg>
